!!!COA:	des Prez, Josquin
!!!CDT:	~1450-1521/08/27
!!!OTL:	Dixit dominus (Rostock 71/1)
!!!AGN:	Motet
!!!SCT:	NJE 16.3
!!!SCA:	New Josquin Edition 16.3
!!!voices:	4
**kern	**kern	**kern	**kern
*part4	*part3	*part2	*part1
*staff4	*staff3	*staff2	*staff1
*Ivox	*Ivox	*Ivox	*Ivox
*I"Bassus	*I"Tenor	*I"Altus	*I"Superius
*I'B	*I'T	*I'A	*I'S
*>[A,B]	*>[A,B]	*>[A,B]	*>[A,B]
*>A	*>A	*>A	*>A
*clefF4	*clefGv2	*clefGv2	*clefG2
*k[]	*k[]	*k[]	*k[]
*a:	*a:	*a:	*a:
*M2/1	*M2/1	*M2/1	*M2/1
*met(C|)	*met(C|)	*met(C|)	*met(C|)
!!section: Prima pars
!!!OMD: Prima pars
=	=	=	=
0r	0r	0G	0r
=3	=3	=3	=3
0r	0r	1A	0r
.	.	2.c	.
.	.	4c	.
=4	=4	=4	=4
0C	0r	2c	0r
.	.	2c	.
.	.	2c	.
.	.	2c	.
=5	=5	=5	=5
1D	0r	1B	0r
[1F	.	1A	.
=6	=6	=6	=6
2F]	0r	2r	0r
2F	.	2A	.
1F	.	2c	.
.	.	2c	.
=7	=7	=7	=7
2r	0r	1d	0r
2D	.	.	.
2F	.	1A	.
2F	.	.	.
=8	=8	=8	=8
1G	0r	2r	0r
.	.	2d	.
1D	.	2f	.
.	.	2f	.
=9	=9	=9	=9
2r	0r	2e	0r
2D	.	2f	.
2F	.	4d	.
.	.	4c	.
2F	.	[2d	.
=10	=10	=10	=10
2E	0r	4d]	1r
.	.	4c	.
2F	.	2.c	.
1D	.	.	1d
.	.	4B	.
.	.	2B	.
=11	=11	=11	=11
0C	0r	[0c	1e
.	.	.	2.g
.	.	.	4g
=12	=12	=12	=12
2r	0G	0c]	2g
2C	.	.	2g
2C	.	.	2g
2C	.	.	2g
=13	=13	=13	=13
1F	1A	1c	1f
1C	[1c	2r	1e
.	.	2g	.
=14	=14	=14	=14
2r	2c]	2g	2r
2C	2c	2g	2e
2C	1c	2e	2g
2C	.	2e	2g
=15	=15	=15	=15
1F	2r	1f	1a
.	2A	.	.
1C	2c	2g	1e
.	2c	2g	.
=16	=16	=16	=16
1r	1d	1f	2r
.	.	.	2a
2r	1A	2e	2cc
2F	.	2f	2cc
=17	=17	=17	=17
2G	2r	2d	2b
2A	2c	2c	2cc
4F	2c	4f	4a
4E	.	4g	4g
2F	2c	4f	[2a
.	.	4e	.
=18	=18	=18	=18
2G	2B	2d	4a]
.	.	.	4g
2C	2c	2e	1g
1D	1A	[1d	.
.	.	.	2f#i
=19	=19	=19	=19
[0GG	[0G	0d]	1g
.	.	.	2r
.	.	.	[2dd
=20	=20	=20	=20
0GG]	0G]	2r	2dd]
.	.	1g	2dd
.	.	.	2dd
.	.	2g	2dd
=21	=21	=21	=21
0r	0r	2g	2dd
.	.	2g	2dd
.	.	2g	2b
.	.	2g	2dd
=22	=22	=22	=22
0r	0r	2e	2.ee
.	.	2g	.
.	.	.	4dd
.	.	2a	2.cc
.	.	4g	.
.	.	4f	8bL/
.	.	.	8aJ/
=23	=23	=23	=23
0r	0r	4g	4b
.	.	4f	4a
.	.	4e	2.dd
.	.	4d	.
.	.	1e	.
.	.	.	8cc#iL
.	.	.	8bJ
.	.	.	4dd
.	.	.	4cc#i
=24	=24	=24	=24
0r	0r	1d	0dd
.	.	2r	.
.	.	2d	.
=25	=25	=25	=25
0r	0r	2c	2r
.	.	2d	2a
.	.	2c	2a
.	.	2f	2a
=26	=26	=26	=26
0r	0r	2e	2g
!	!	!LO:TX:Z=18:t=MS&colon; dotted minim	!
.	.	2d	2a
.	.	4c	2cc
.	.	8BL/	.
.	.	8AJ/	.
.	.	2G	2b
=27	=27	=27	=27
0r	1r	2c	2a
.	.	2.B	2.g
.	1D	.	.
.	.	8AL	8f#iL
.	.	8GJ	8eJ
.	.	2A	2f#i
=28	=28	=28	=28
1GG	1.G	1G	0g
[1C	.	2r	.
.	2G	2G	.
=29	=29	=29	=29
2C]	2G	2G	0r
2C	2G	2G	.
2C	2A	2c	.
2C	2G	2c	.
=30	=30	=30	=30
2D	2r	2B	0r
2C	2G	2c	.
2r	2E	2G	.
2C	2G	[2c	.
=31	=31	=31	=31
2AA	2.A	2c]	0r
2C	.	2e	.
.	4A	.	.
2.D	1A	2.f	.
4D	.	4e	.
=32	=32	=32	=32
1D	2B	4d	0r
.	.	4c	.
.	2.A	1d	.
1E	.	.	.
.	4G	.	.
.	[2G	[2c	.
=33	=33	=33	=33
1D	2G]	2c]	1d
.	2F	2B	.
1C	[1G	1c	[1g
=34	=34	=34	=34
2C	1G]	1c	2g]
2C	.	.	2g
2C	2c	2G	2g
2E	2B	2G	2g
=35	=35	=35	=35
1F	1A	2c	1a
.	.	2d	.
[1E	2B	[1e	1g
.	2G	.	.
=36	=36	=36	=36
1E]	2c	1e]	2r
.	2c	.	2e
2r	[1B	1r	2g
2E	.	.	2g
=37	=37	=37	=37
1G	1B]	2r	2g
.	.	2B	2g
1G	2r	2d	1d
.	2B	2d	.
=38	=38	=38	=38
2D	2d	2d	1f
2D	2d	2A	.
2F	2A	4A	1c
.	.	4B	.
2F	2A	4c	.
.	.	4d	.
=39	=39	=39	=39
0C	2c	0e	1g
.	2c	.	.
.	[1G	.	2r
.	.	.	2e
=40	=40	=40	=40
2r	1G]	1r	1g
2E	.	.	.
!	!LO:TX:Z=8:t=MS short one iteration of T motive	!	!
2G	1r	2r	1g
2G	.	2B	.
=41	=41	=41	=41
1G	2r	2d	1d
.	2B	2d	.
2D	2d	2d	1f
2D	2d	2A	.
=42	=42	=42	=42
1F	2A	4A	2a
.	.	4B	.
.	2A	4c	2a
.	.	4d	.
1C	2c	[1e	1g
.	2c	.	.
=43	=43	=43	=43
1C	0G	1e]	2r
.	.	.	2e
2r	.	1r	2g
2E	.	.	2g
=44	=44	=44	=44
2G	1r	2r	1g
2G	.	2B	.
1G	2r	2d	1d
.	2B	2d	.
=45	=45	=45	=45
1D	2d	2d	2.f
.	2d	2A	.
.	.	.	4g
2.F	2A	2r	4a
.	.	.	4f
.	[2c	2A	[2a
4E	.	.	.
=46	=46	=46	=46
2C	4c]	2e	4a]
.	4B	.	4g
2E	2G	2c	2.g
1D	1A	1d	.
.	.	.	4f#i
.	.	.	2f#i
=47	=47	=47	=47
1GG	[0G	1d	1g
2r	.	2r	2r
2GG	.	2d	2g
=48	=48	=48	=48
2GG	0G]	2d	2g
2GG	.	2B	2d
2C	.	2c	2e
2C	.	2c	2e
=49	=49	=49	=49
0GG	1G	1B	2d
.	.	.	2.dd
.	2r	2r	.
.	.	.	4cc
.	2G	2d	4b
.	.	.	4a
=50	=50	=50	=50
0r	2G	2d	2b
.	2D	2d	2.a
.	2E	2B	.
.	.	.	4g
.	2E	4A	[2g
.	.	4G	.
=51	=51	=51	=51
1r	0D	2A	2g]
.	.	2A	2f#i
1GG	.	[1G	[1g
=52	=52	=52	=52
!LO:TX:Z=8:t=MS unreadable in mm. 52--53	!	!	!
0C	0r	0G]	1g]
.	.	.	1r
=53	=53	=53	=53
2D	0r	1r	0r
2F	.	.	.
2F	.	1c	.
2E	.	.	.
=54	=54	=54	=54
1D	0r	2d	0r
.	.	2f	.
2D	.	2f	.
2C	.	[2e	.
=55	=55	=55	=55
1D	1r	2e]	0r
.	.	1d	.
1E	1G	.	.
.	.	2c#i	.
=56	=56	=56	=56
1D	1A	1d	1r
1C	1c	[1e	1g
=57	=57	=57	=57
1.AA	2.c	0e]	2a
.	.	.	2cc
.	4B	.	.
.	2A	.	2cc
2E	2G	.	[2b
=58	=58	=58	=58
1F	1A	2c	4b]
.	.	.	4a
.	.	2d	1a
1E	1B	[1e	.
.	.	.	2g#i
=59	=59	=59	=59
!	!	!	!LO:TX:Z=8:t=MS&colon; long
1AA	[0A	1e]	[0a
2D	.	2f	.
2AA	.	[2e	.
=60	=60	=60	=60
2C	0A_	2e]	0a_
2D	.	1d	.
1E	.	.	.
.	.	2c	.
=61	=61	=61	=61
[0D	0A_	2r	0a_
.	.	1d	.
.	.	2d	.
=62	=62	=62	=62
1D]	0A]	2d	0a]
.	.	2d	.
1r	.	1c	.
=63	=63	=63	=63
!LO:TX:Z=8:t=MS unreadable in this m.	!	!	!
2r	0r	2.d	0r
1D	.	.	.
.	.	4c	.
.	.	4d	.
.	.	4e	.
[2D	.	[2f	.
=64	=64	=64	=64
2D]	1.A	2f]	0r
2C	.	2e	.
2D	.	1d	.
[2F	2A	.	.
=65	=65	=65	=65
2F]	2A	2d	1r
2E	2G	2c	.
2D	2A	2d	2.a
2C	[2c	2e	.
.	.	.	4a
=66	=66	=66	=66
2AA	2c]	2e	2a
2r	2B	2d	2g
1r	1A	2e	2a
.	.	2f	2cc
=67	=67	=67	=67
!LO:TX:Z=8:t=MS unclear in this m.	!	!	!
2GG	2G	2g	2b
2D	1A	1f	2a
2D	.	.	2r
[2AA	[2c	[2e	2a
=68	=68	=68	=68
2AA]	2c]	2e]	2a
2E	2B	2e	2g
1F	1A	2.c	2a
.	.	.	[2cc
.	.	4d	.
=69	=69	=69	=69
2C	2G	2e	2cc]
2G	2B	4d	2b
.	.	4e	.
2A	2c	2f	2a
2F	2A	[2d	2a
=70	=70	=70	=70
1E	2B	2d]	2g
.	2G	2c	2g
1D	2A	1d	4f
.	.	.	4g
.	2F	.	4a
.	.	.	4b
=71	=71	=71	=71
0C	1G	0e	2.cc
.	.	.	4b
.	2E	.	4a
.	.	.	4g
.	2F	.	[2a
=72	=72	=72	=72
1E	1G	2B	4a]
.	.	.	4g
.	.	2c	2.g
1D	1A	1d	.
.	.	.	4f#i
.	.	.	2f#i
=73	=73	=73	=73
0GGl	0Gl	2.B	0gl
.	.	4c	.
.	.	1dl	.
!!LO:LB:i:g=z
=74||	=74||	=74||	=74||
*>B	*>B	*>B	*>B
*clefF4	*clefGv2	*clefGv2	*clefG2
*k[]	*k[]	*k[]	*k[]
*M2/1	*M2/1	*M2/1	*M2/1
*met(C|)	*met(C|)	*met(C|)	*met(C|)
!!section: Secunda pars: Iuravit dominus
!!!OMD: Secunda pars: Iuravit dominus
0r	0r	0r	0d
=75	=75	=75	=75
0r	0r	0r	1a
.	.	.	1a
=76	=76	=76	=76
0r	0r	0G	1.b
.	.	.	4a
.	.	.	4g
=77	=77	=77	=77
0r	0r	1d	2b
.	.	.	1a
.	.	1d	.
.	.	.	4g
.	.	.	4f
=78	=78	=78	=78
0r	0r	1.e	2g
.	.	.	1cc
.	.	4d	4b
.	.	4c	4a
=79	=79	=79	=79
0r	0D	2d	2b
.	.	1f	1a
.	.	4e	4g
.	.	4d	4f
=80	=80	=80	=80
0r	1A	4e	4g
.	.	4d	4f
.	.	4c	4e
.	.	4B	4d
.	1A	1c	1e
=81	=81	=81	=81
0GG	1.B	0d	1d
.	.	.	[1g
.	4A	.	.
.	4G	.	.
=82	=82	=82	=82
1D	1B	1d	2g]
.	.	.	4f
.	.	.	4e
1D	1A	1d	1f
=83	=83	=83	=83
1.E	1.G	1B	1g
.	.	2c	2e
4D	2A	4d	2f
4C	.	4c	.
=84	=84	=84	=84
1E	2G	4B	2g
.	.	4A	.
.	1c	1G	2e
1D	.	.	1f
.	2B	2F	.
=85	=85	=85	=85
1C	1c	1.G	2.e
.	.	.	4f
2r	2d	.	2g
2AA	2e	2c	[2a
=86	=86	=86	=86
!LO:TX:Z=8:t=MS&colon; this note unreadable	!LO:TX:Z=8:t=MS&colon; dotted sb	!	!
1C	2.c	1e	4a]
.	.	.	4g
.	.	.	1g
.	4B	.	.
2D	1A	2d	.
2D	.	2d	2f#i
=87	=87	=87	=87
2.E	2.G	2.c	1g
4D	4F	4B	.
2C	2E	2A	1r
2BB	[2D	[2G	.
=88	=88	=88	=88
1AA	2D]	2G]	0r
.	2C	2F#i	.
[1GG	1D	[1G	.
=89	=89	=89	=89
1GG]	2r	1G]	1r
.	2d	.	.
2r	2d	1r	2dd
2G	2d	.	2dd
=90	=90	=90	=90
2G	2B	2r	2dd
2G	2B	2g	2b
2E	2G	2g	2b
2E	2G	2g	2g
=91	=91	=91	=91
2C	1c	2e	2g
2C	.	2e	1cc
1F	1A	2c	.
.	.	2c	[2a
=92	=92	=92	=92
1D	2r	1f	2a]
.	2d	.	2r
2r	2d	1d	2dd
2G	2d	.	2dd
=93	=93	=93	=93
2G	2B	2r	2dd
2G	2B	2g	2b
2E	2G	2g	2b
2E	2G	2g	2g
=94	=94	=94	=94
2C	2c	2e	2g
2C	2c	2e	2.cc
2.F	2A	2c	.
.	.	.	4b
.	4B	2c	[2a
4E	4c	.	.
=95	=95	=95	=95
2D	2d	2f	4a]
.	.	.	4g
2GG	2B	2d	1g
1D	1A	[1d	.
.	.	.	2f#i
=96	=96	=96	=96
0GG	1G	0d]	0g
.	2r	.	.
.	[2d	.	.
=97	=97	=97	=97
0r	2d]	2r	2r
.	2d	1f	1a
.	2d	.	.
.	2d	2f	2a
=98	=98	=98	=98
0r	2c	2e	2a
.	2d	2f	2a
.	2B	2d	2g
.	2A	2e	2a
=99	=99	=99	=99
0r	2r	2d	2f
.	1c	1g	1e
.	2A	2f	2cc
=100	=100	=100	=100
0r	2G	2g	2b
.	2c	2e	2cc
.	2B	2d	2g
.	2c	4e	2cc
.	.	4f	.
=101	=101	=101	=101
0r	2G	2g	2b
.	2c	2e	2cc
.	2B	2d	2g
.	[2c	[2e	[2a
=102	=102	=102	=102
0r	4c]	2e]	4a]
.	4B	.	4g
.	4A	1d	1g
.	4G	.	.
.	1A	.	.
.	.	2c	2f#i
=103	=103	=103	=103
1C	1G	1e	1g
[1G	[1B	[1d	[1g
=104	=104	=104	=104
2G]	2B]	2d]	2g]
2G	2B	2d	2g
2G	2B	2d	2g
2G	2B	2d	2g
=105	=105	=105	=105
2.D	1A	2.d	0f
4C	.	4e	.
4D	1d	4f	.
4E	.	4g	.
4F	.	[2a	.
4G	.	.	.
=106	=106	=106	=106
4A	2c	2a]	1.e
4B	.	.	.
1c	1A	4g	.
.	.	4f	.
.	.	4e	.
.	.	4d	.
2B	2B	[2g	2g
=107	=107	=107	=107
!	!LO:TX:Z=8:t=MS&colon; c.o.p. lig.?	!	!
1A	1c	2g]	2a
.	.	2f#i	1cc
1G	1d	[1g	.
.	.	.	2b
=108	=108	=108	=108
1C	1c	1g]	[0cc
2r	2r	2r	.
2C	2c	2g	.
=109	=109	=109	=109
1C	1c	1g	0cc]
2C	2.e	1g	.
2C	.	.	.
.	4d	.	.
=110	=110	=110	=110
!	!	!	!LO:TX:Z=8:t=MS&colon; minim
1F	2c	2f	1a
.	2A	2d	.
1E	1B	1e	2g
.	.	.	[2e
=111	=111	=111	=111
1C	2c	1g	4e]
.	.	.	4f
.	2e	.	4g
.	.	.	4a
2G	2d	2g	2b
2A	2c	2f	[2cc
=112	=112	=112	=112
1F	1A	1d	4cc]
.	.	.	4b
.	.	.	1a
1E	1B	[1e	.
.	.	.	2g#i
=113	=113	=113	=113
2r	1A	2e]	2a
2A	.	2f	2cc
2G	2r	1g	2b
2E	2e	.	2g
=114	=114	=114	=114
2G	2d	1g	2b
2G	2B	.	2b
2D	2d	2.f	2.a
2D	2d	.	.
.	.	4e	4g
=115	=115	=115	=115
1F	1A	2c	4a
.	.	.	4g
.	.	2d	2.a
2E	2B	1e	.
.	.	.	4g
2C	2c	.	[2g
=116	=116	=116	=116
2D	1A	1d	4g]
.	.	.	4f#i
2D	.	.	2f#i
[1GG	1G	[1d	[1g
=117	=117	=117	=117
1GG]	2r	1d]	0g_
.	1G	.	.
2r	.	2r	.
[2C	2G	[2c	.
=118	=118	=118	=118
2C]	2G	2c]	1g]
2C	2G	2c	.
2C	[1A	2c	1r
2C	.	2c	.
=119	=119	=119	=119
1D	2A]	2.f	0r
.	4G	.	.
.	4A	4e	.
1D	2B	4d	.
.	.	4c	.
.	[2A	[2d	.
=120	=120	=120	=120
2.E	4A]	4d]	1r
.	4G	4c	.
.	1G	1c	.
4F	.	.	.
1D	.	.	1dd
.	2F	2B	.
=121	=121	=121	=121
1C	1G	1c	2.ee
.	.	.	4dd
1r	2.e	1r	2cc
.	.	.	2b
.	4d	.	.
=122	=122	=122	=122
1r	2c	1r	2a
.	2B	.	1g
1D	1A	1d	.
.	.	.	2f#i
=123	=123	=123	=123
2.E	2.G	2.c	1g
4D	4F	4B	.
2C	2E	2A	1r
2BB	[2D	[2G	.
=124	=124	=124	=124
1AA	2D]	2G]	2r
.	2C	2F#i	2a
1GG	1D	1G	2b
.	.	.	[2dd
=125	=125	=125	=125
1D	2r	2r	4dd]
.	.	.	4cc
.	2.d	2.f	2.a
2D	.	.	.
.	4c	4e	4f
[2F	[2A	[2c	[2a
=126	=126	=126	=126
4F]	4A]	4c]	4a]
4E	4B	4d	4g
2.C	2.c	2.e	2.a
4D	4B	4d	4g
2E	4G	2c	[2g
.	4B	.	.
=127	=127	=127	=127
1D	1A	0d	2g]
.	.	.	2f#i
[1GG	[1G	.	1g
=128	=128	=128	=128
0GG]	0G]	2r	2r
.	.	2d	2g
.	.	2d	2g
.	.	2d	2g
=129	=129	=129	=129
0r	1r	1f	1a
.	2r	2e	2g
.	2D	2d	2f
=130	=130	=130	=130
1r	2A	2d	2e
.	2A	2c	2e
2r	1B	1d	1d
2GG	.	.	.
=131	=131	=131	=131
2D	2A	2r	0r
1D	1d	1A	.
2E	2c	2G	.
=132	=132	=132	=132
!LO:TX:Z=8:t=MS unreadable in this m.	!	!	!
2D	2d	2A	0r
2G	2B	2B	.
2A	1A	2.c	.
2A	.	.	.
.	.	8BL/	.
.	.	8AJ/	.
=133	=133	=133	=133
0G	2r	1B	2r
.	2G	.	1dd
.	1d	1r	.
.	.	.	2dd
=134	=134	=134	=134
!LO:TX:Z=8:t=MS unreadable mm. 134--35	!	!	!
1r	2.e	0r	2cc
.	.	.	2cc
.	4e	.	.
2r	2d	.	2b
2C	2c	.	[2a
=135	=135	=135	=135
1E	1B	2r	2a]
.	.	2e	2g#i
!	!LO:TX:Z=8:t=MS&colon; lacking	!	!
1AA	1A	2f	1a
.	.	2e	.
=136	=136	=136	=136
2.F	2.A	2.d	0r
4E	4G	4c	.
2.D	2F	2B	.
.	[2E	[2A	.
4C	.	.	.
=137	=137	=137	=137
2.BB	4E]	4A]	0r
.	4D	4G	.
.	1D	1G	.
4C	.	.	.
1AA	.	.	.
.	2C	2F#i	.
=138	=138	=138	=138
[0GG	2D	0G	0r
.	2.d	.	.
.	4c	.	.
.	4B	.	.
.	4A	.	.
=139	=139	=139	=139
1GG]	2G	1G	0r
.	4F	.	.
.	4E	.	.
1r	1D	1A	.
=140	=140	=140	=140
1r	1C	1c	0r
[1C	2r	2c	.
.	2e	[2c	.
=141	=141	=141	=141
1C]	2e	2c]	0r
.	2e	2c	.
1D	1d	2B	.
.	.	2B	.
=142	=142	=142	=142
1F	0c	1A	0r
1F	.	2r	.
.	.	2A	.
=143	=143	=143	=143
1F	0r	2c	0r
.	.	2c	.
2r	.	1d	.
2D	.	.	.
=144	=144	=144	=144
1F	0r	1A	0r
2G	.	2r	.
2G	.	2d	.
=145	=145	=145	=145
1D	0r	2f	0r
.	.	2f	.
2r	.	2e	.
2D	.	2f	.
=146	=146	=146	=146
!	!	!	!LO:TX:Z=8:t=MS&colon; sb rest
1F	0r	4d	0r
.	.	4c	.
.	.	2d	.
2E	.	2c	.
2F	.	[2c	.
=147	=147	=147	=147
1D	0r	2c]	1d
.	.	2B	.
[1C	.	[1c	1e
=148	=148	=148	=148
1C]	1r	0c_	1g
2r	[1G	.	1g
[2C	.	.	.
=149	=149	=149	=149
2C]	1G]	1c]	2g
2C	.	.	2g
2F	1A	1c	2f
2F	.	.	2f
=150	=150	=150	=150
1C	1.c	2r	1e
.	.	1g	.
2r	.	.	2r
2C	2c	2g	2e
=151	=151	=151	=151
2C	1c	2e	2g
2C	.	2e	2g
2F	2r	1f	1a
2F	2A	.	.
=152	=152	=152	=152
1C	2c	1g	1e
.	2c	.	.
1r	2d	1f	2r
.	2d	.	2a
=153	=153	=153	=153
2r	1A	2e	2cc
2F	.	2f	2cc
2G	2r	2d	2b
2A	[2c	2c	2cc
=154	=154	=154	=154
4F	2c]	4f	4a
4E	.	4g	4g
2F	2c	4f	2a
.	.	4e	.
2G	2B	2d	2a
2C	2c	2e	[2g
=155	=155	=155	=155
1D	1A	1d	4g]
.	.	.	4f#i
.	.	.	2f#i
1GGl	1Gl	1dl	1gl
==	==	==	==
*-	*-	*-	*-
!!!RDF**kern: l=long note in original notation
!!!RDF**kern: i = editorial accidental
!!!ENC:	Jesse Rodin
!!!END:	2021/07/13
!!!EED:	Jesse Rodin
!!!EEV:	2021/09/30
!!attribution-level@Jos: 4a (the rest [double question mark])
!!!ONB:	Translated from MusicXML and edited on 2021/09/30 by Craig Sapp
!!muse2ps: C^@{COA}??\n@{SCT}^i2I150v85,85,85,150c180z18
